!!!OTL: Jerman Weizers Frau
!!!OTL-incipit:HOeret zu, jhr lieben Christenleuth,
!!!ARE: Europa, Mitteleuropa, Deutschland (Text: Bayern, Nuernberg)
!!!YOR: 5, S. 208
!!    1646 Handschrift Kloster Seeon (ca.)
!!!SCT: Q0108
!!!TXL: @@DE
!!!YEM: Copyright 1995, estate of Helmut Schaffrath.
**kern	**text
*ICvox	*
*M3/2	*
*met(3)	*
*k[b-]	*
{2g	1._HOert
=1-	=1-
1g	ʒu.
2d	jhr
=2-	=2-
1g	lie-
2a	-ben
=3-	=3-
*lig	*
2b-	Chri-
2cc	.
*Xlig	*
2a	-sten-
=4-	=4-
1g}	-leuth,
{2g	ein
=5-	=5-
1b-	Ʒei-
2cc	-tung
=6-	=6-
1dd	thu
2cc	ich
=7-	=7-
(1b-	brin-
2a)	.
=8-	=8-
1g}	-gen,
{2g	so
=9-	=9-
1g	sich
2d	new-
=10-	=10-
1g	-lich
2a	in
=11-	=11-
*lig	*
2b-	kur-
2cc	.
*Xlig	*
2a	-tʒer
=12-	=12-
1g}	ʒeit
{2g	be-
=13-	=13-
1b-	-ge-
2cc	-ben,
=14-	=14-
1dd	will
2cc	ich
=15-	=15-
(1b-	sin-
2a)	.
=16-	=16-
1g}	-gen,
{2g	in
=17-	=17-
1dd	Schle-
2cc	-sing
=18-	=18-
1ff	ʒu
2ee	Preß-
=19-	=19-
1dd	-law,
2cc#	ich
=20-	=20-
1dd}	meld,
{2dd	wie
=21-	=21-
1dd	die
2cc	Ʒei-
=22-	=22-
1a	-tung
2b-	mit
=23-	=23-
1g	war-
2a	-heit
=24-	=24-
1d}	meld.
{2d	Ach
=25-	=25-
1f	GOtt.
2g	hilff
=26-	=26-
1a	mirs
2cc	voll-
=27-	=27-
*lig	*
(2b-	-brin-
2g	.
*Xlig	*
2a=	.
=28-	=28-
1g/ll;}	-gen!
==	==
!!!AGN: Ballade, Schein - Tod, Geburt, Grab, Auferstehen; geistlich,, Ballade; Sterbe - Lied; Zeitungs - Lied
!! Geistliche Kontrafaktur? Tonangabe des Sterbelieds zu dieser
!!    Ballade. Takteinteilung gemaess der Vorgabe (Dreier) selbst
!!    durchgefuehrt.
!!!ONB: ESAC (Essen Associative Code) Database: BALLADE
!!!AMT: simple triple
!!!AIN: vox
!!!EED: Helmut Schaffrath
!!!EEV: 1.0
!!@@COMMENT:"Text: FJ. Blatt. Gedruckt 1663 bei Christoff Lochner in Nürnberg.
!!Melodie: J. Werlin um 1646. Bayer. Staatsbibl. München
!!Cgm 3689. fol. 2420. Nr. 19/18"
!!@@END:
!!!RDF**kern: l = terminal long
!!!source: Deutsche Volkslieder mit ihren Melodien Balladen. Herausgegeben vom Deutschen Volksliedarchiv. Fünfter Teil. Freiburg/Breisgau 1965.
!!!page: 208
!!!ENC: Anna Maria Matuszewska
!!!EEV: 2025/03/04
*-	*-
